style-guide/assets/wds-icons-home-tiny.svg

<svg xmlns="http://www.w3.org/2000/svg" xmlns:xlink="http://www.w3.org/1999/xlink" width="12" height="12" viewBox="0 0 12 12">
  <defs>
    <path id="home-a" d="M9,10.00025 L10,10.00025 L10,6.41425 L6,2.41425 L2,6.41425 L2,10.00025 L3,10.00025 L3,9.00025 C3,7.34625 4.346,6.00025 6,6.00025 C7.654,6.00025 9,7.34625 9,9.00025 L9,10.00025 Z M11,12.00025 L8,12.00025 C7.448,12.00025 7,11.55325 7,11.00025 L7,9.00025 C7,8.44925 6.551,8.00025 6,8.00025 C5.449,8.00025 5,8.44925 5,9.00025 L5,11.00025 C5,11.55325 4.552,12.00025 4,12.00025 L1,12.00025 C0.448,12.00025 0,11.55325 0,11.00025 L0,6.00025 C0,5.73525 0.105,5.48025 0.293,5.29325 L5.293,0.29325 C5.684,-0.09775 6.316,-0.09775 6.707,0.29325 L11.707,5.29325 C11.895,5.48025 12,5.73525 12,6.00025 L12,11.00025 C12,11.55325 11.552,12.00025 11,12.00025 Z"/>
  </defs>
  <use fill-rule="evenodd" xlink:href="#home-a"/>
</svg>

<svg viewBox="0 0 12 12" xmlns="http://www.w3.org/2000/svg">
  <path d="M9 10h1V6.414l-4-4-4 4V10h1V9c0-1.654 1.346-3 3-3s3 1.346 3 3v1zm2 2H8a1 1 0 0 1-1-1V9c0-.55-.449-1-1-1-.551 0-1 .45-1 1v2a1 1 0 0 1-1 1H1a1 1 0 0 1-1-1V6c0-.265.105-.52.293-.707l5-5a.999.999 0 0 1 1.414 0l5 5A.997.997 0 0 1 12 6v5a1 1 0 0 1-1 1z" fill-rule="evenodd"/>
</svg>
